symbolic/22x22/actions/kstars_clines.svg

<svg xmlns="http://www.w3.org/2000/svg" width="22" height="22" viewBox="0 0 22 22">
 <defs>
  <style id="current-color-scheme" type="text/css">
   .ColorScheme-Text { color:#323a41; } .ColorScheme-Highlight { color:#4285f4; } .ColorScheme-NeutralText { color:#ff9800; } .ColorScheme-PositiveText { color:#4caf50; } .ColorScheme-NegativeText { color:#f44336; }
  </style>
 </defs>
 <path style="fill:currentColor" class="ColorScheme-Text" d="M 13.279297 -0.021484375 L 13.279297 0 L 8.921875 7.359375 L 5.4570312 9.2070312 L 2.4609375 10.394531 L 0 15.59375 L 0.81835938 15.978516 L 3.1269531 11.082031 L 5.8378906 10.007812 L 9.1328125 8.2519531 L 11.988281 10.404297 L 16 5.0019531 L 13.279297 -0.021484375 z M 13.244141 1.8378906 L 14.927734 4.9472656 L 11.804688 9.1523438 L 9.8046875 7.6445312 L 13.244141 1.8378906 z" transform="translate(3 3)"/>
</svg>

<svg xmlns="http://www.w3.org/2000/svg" width="22" height="22"><defs><style id="current-color-scheme" type="text/css"></style></defs><path style="fill:currentColor;color:#323a41" d="M13.28-.021V0L8.921 7.36 5.457 9.206l-2.996 1.188L0 15.594l.818.385 2.309-4.897 2.71-1.074 3.296-1.756 2.855 2.152L16 5.002 13.28-.021zm-.036 1.859 1.684 3.11-3.123 4.204-2-1.507 3.44-5.807z" transform="translate(3 3)"/></svg>
